X:8821
T:La Bel Jean. JC.028
M:2/4
L:1/8
Q:190
S:John Clare,Poet,Helpston. (1793-1864)
R:Misc.
O:England
A:Northamptonshire
N:
Z:P Headford
K:G
G>ABB|ccA2|d/e/d/c/ B/c/B/A/|G/A/B/c/ BA|
G>ABB|ccA2|d/e/d/c/ BG|B/A/G/F/ G2|!
|G/A/B/c/ dB|cdBG|G/A/B/c/ dB|cdg2|
G/A/B/c/ dB|cdBG|G/A/B/c/ dB|cdg2|]
